svg/u2935.svg

<svg viewBox="0 0 128 128" xmlns="http://www.w3.org/2000/svg">
  <g>
    <path d="M116.46,3.96h-104c-4.42,0-8,3.58-8,8v104c0,4.42,3.58,8,8,8h104c4.42,0,8-3.58,8-8v-104 C124.46,7.54,120.88,3.96,116.46,3.96z" fill="#427687"/>
    <path d="M110.16,3.96h-98.2c-4.13,0.03-7.47,3.37-7.5,7.5v97.9c-0.01,4.14,3.34,7.49,7.48,7.5 c0.01,0,0.01,0,0.02,0h98.1c4.14,0.01,7.49-3.34,7.5-7.48c0-0.01,0-0.01,0-0.02v-97.9c0.09-4.05-3.13-7.41-7.18-7.5 C110.31,3.96,110.23,3.96,110.16,3.96z" fill="#8CAFBF"/>
    <path d="M35.16,43.96c1.74-0.02,3.26-1.15,3.8-2.8c1.7-5.2,8.1-9.2,15.5-9.2c8.7,0,16,5.5,16,12v34 c0,1.1-0.9,2-2,2h-14c-2.21,0.02-3.98,1.83-3.96,4.04c0.01,0.94,0.35,1.85,0.96,2.56l24,24c1.46,1.66,3.99,1.82,5.65,0.35 c0.13-0.11,0.24-0.23,0.35-0.35l24-24c1.44-1.68,1.24-4.2-0.44-5.64c-0.71-0.61-1.62-0.95-2.56-0.96h-14c-1.1,0-2-0.9-2-2v-34 c0-15.5-14.3-28-32-28c-15.8,0-29,10.1-31.5,23.3c-0.39,2.18,1.06,4.25,3.24,4.64c0.22,0.04,0.44,0.06,0.66,0.06H35.16z" fill="#FAFAFA"/>
  </g>
  <path d="M40.16,12.86c0-2.3-1.6-3-10.8-2.7c-7.7,0.3-11.5,1.2-13.8,4 s-2.9,8.5-3,15.3c0,4.8,0,9.3,2.5,9.3c3.4,0,3.4-7.9,6.2-12.3C26.66,17.76,40.16,15.86,40.16,12.86z" opacity="0.5" fill="#B4E1ED" enable-background="new "/>
</svg>

<svg viewBox="0 0 128 128" xmlns="http://www.w3.org/2000/svg">
  <defs/>
  <path d="M116.46,3.96 L12.46,3.96 C8.04,3.96 4.46,7.54 4.46,11.96 L4.46,115.96 C4.46,120.38 8.04,123.96 12.46,123.96 L116.46,123.96 C120.88,123.96 124.46,120.38 124.46,115.96 L124.46,11.96 C124.46,7.54 120.88,3.96 116.46,3.96 Z" fill="#427687"/>
  <path d="M110.16,3.96 L11.96,3.96 C7.83,3.99 4.49,7.33 4.46,11.46 L4.46,109.36 C4.45,113.5 7.8,116.85 11.94,116.86 C11.95,116.86 11.95,116.86 11.96,116.86 L110.06,116.86 C114.2,116.87 117.55,113.52 117.56,109.38 C117.56,109.37 117.56,109.37 117.56,109.36 L117.56,11.46 C117.65,7.41 114.43,4.05 110.38,3.96 C110.31,3.96 110.23,3.96 110.16,3.96 Z" fill="#8CAFBF"/>
  <path d="M35.16,43.96 C36.9,43.94 38.42,42.81 38.96,41.16 C40.66,35.96 47.06,31.96 54.46,31.96 C63.16,31.96 70.46,37.46 70.46,43.96 L70.46,77.96 C70.46,79.06 69.56,79.96 68.46,79.96 L54.46,79.96 C52.25,79.98 50.48,81.79 50.5,84 C50.51,84.94 50.85,85.85 51.46,86.56 L75.46,110.56 C76.92,112.22 79.45,112.38 81.11,110.91 C81.24,110.8 81.35,110.68 81.46,110.56 L105.46,86.56 C106.9,84.88 106.7,82.36 105.02,80.92 C104.31,80.31 103.4,79.97 102.46,79.96 L88.46,79.96 C87.36,79.96 86.46,79.06 86.46,77.96 L86.46,43.96 C86.46,28.46 72.16,15.96 54.46,15.96 C38.66,15.96 25.46,26.06 22.96,39.26 C22.57,41.44 24.02,43.51 26.2,43.9 C26.42,43.94 26.64,43.96 26.86,43.96 L35.16,43.96 Z" fill="#FAFAFA"/>
  <path d="M40.16,12.86 C40.16,10.56 38.56,9.86 29.36,10.16 C21.66,10.46 17.86,11.36 15.56,14.16 C13.26,16.96 12.66,22.66 12.56,29.46 C12.56,34.26 12.56,38.76 15.06,38.76 C18.46,38.76 18.46,30.86 21.26,26.46 C26.66,17.76 40.16,15.86 40.16,12.86 Z" fill="#B4E1ED" opacity="0.5"/>
</svg>
